X:1
T:Ad te, Domine - Fux
T:James Gibb editions
T:#
%%score [ 1 2 3 4 ]
L:1/8
Q:1/4=108
M:none
K:F
V:1 treble nm="Soprano"
V:2 treble nm="Alto"
V:3 treble-8 nm="Tenor"
V:4 bass nm="Bass"
V:1
"^Ad te, Domine""^Johann Joseph Fux\n (1660-1741)""^Psalm 25: 1-2" D8 G8 | B6 A2 G4 D4 | %2
w: Ad te,|Do- mi- ne, le-|
 (d6 c2 B4 A4 | G4 c8 B4- | B2 A2 G8 A2 B2 | c4 B4) A4 d4- | d2 d2 c4 (B8- | B4 A4) G8 | %8
w: va\- * * *|||* * vi a\-|* ni- mam me\-|* * am,|
 z4 z4 B4 (_e4- | e4 d6 c2 B4- | B4 c4 d8) | G8 z8 | z8 z4 G4- | G2 G2 F4 E4 D4 | z8 z4 A4- | %15
w: le- va\-|||vi|a\-|* ni- mam me- am,|De\-|
 A4 D4 F8 | E8 z4 d4- | d4 A4 c8 | B8 z8 | z16 | z4 A4 d4 d4 | c8 B4 d4 | B8 A4 c4- | c4 G4 B8 | %24
w: * us me-|us, De\-|* us me-|us,||in te con-|fi- do, con-|fi- do, De\-|* us me-|
 A4 A4 c4 c4 | B8 A8 | z4 G4 d4 d4 | c8 B4 B4 | (A4 B8 A4) | B8 z4 F4 | G4 B4 A8 | G4 G4 A4 c4 | %32
w: us, in te con-|fi- do,|in te con-|fi- do, con-|fi\- * *|do, non|e- ru- be-|scam, non e- ru-|
 B8 A8 | z4 G4 B4 d4 | c8 B8 | z8 z4 F4 | G4 c4 (A8 | G8) F8 | z16 | z16 | z8 z4 F4 | %41
w: be- scam,|non e- ru-|be- scam,|non|e- ru- be\-|* scam,|||nec-|
 G4 B4 B2 A2 G4 | F16 | z4 A4 B4 d4 | d2 c2 B4 A4 A4- | A4 B4 c8 | A8 (G4 A4 | B8) F4 G4 | %48
w: que ir- ri- de- ant|me,|nec- que ir-|ri- de- ant me i\-|* ni- mi-|ci me\- *|* i, nec-|
 A4 c4 c2 B2 A4 | G8 B4 c4 | d4 A4 (B4 c4 | A8) G8 | z4 B4 c4 _e4 | _e2 d2 c4 B8 | z4 B8 c4 | %55
w: que ir- ri- de- ant|me i- ni-|mi- ci me\- *|* i,|nec- que ir-|ri- de- ant me|i- ni-|
 d4 B4 d4 (c2 B2) | (A4 G2 F2 G8) | F8 (G8- | G4 ^F2 E2) F8- | F8 z4 G4- | G2 G2 A4 B6 B2 | %61
w: mi- ci, i- ni\- *|mi\- * * *|ci me\-|* * * i:|* Et\-|* e- nim u- ni-|
 (c4 B8 A4) | B4 F4 G4 A4 | (B2 c2 d8 c4 | B8) A8 | z16 | z4 A4 B4 G4 | (A8 G8) | F8 z8 | %69
w: ver\- * *|si, qui te ex-|pec\- * * *|* tant,||non con- fun-|den\- *|tur,|
 z4 d4 _e4 c4 | (d8 c8- | c4 B8 A4) | B8 z8 | z4 B4 c4 A4 | (B2 G2 B6 A2) G4 | z4 c4 d4 B4 | %76
w: non con- fun-|den\- *||tur,|non con- fun-|den\- * * * tur,|non con- fun-|
 (c6 B2 A8- | A4 G4) A8 | z4 A6 A2 A4 | A12 =B4 | c16 | B8 z8 | z4 B4 c4 d4 | _e8 d8 | z8 z4 A4 | %85
w: den\- * *|* * tur,|et- e- nim|u- ni-|ver-|si,|qui te ex-|pec- tant,|non|
 B4 G4 A4 F4 | z4 d4 _e4 c4 | d4 B4 z8 | z4 A4 B4 G4 | %89
w: con- fun- den- tur,|non con- fun-|den- tur,|non con- fun-|
[Q:1/4=107] (A2[Q:1/4=106] ^F2[Q:1/4=103] A6[Q:1/4=101] G2[Q:1/4=99] G4- | %90
w: den\- * * * *|
[Q:1/4=97] G4[Q:1/4=95] ^F2[Q:1/4=94] E2[Q:1/4=92] F8) |[Q:1/4=90] !fermata!G16 |] %92
w: |tur.|
V:2
 z16 | z16 | G,8 D8 | _E6 E2 D4 G,4 | (G6 F2 _E4 D4) | C4 G6 G2 F4 | _E8 D8 | z4 F4 (B2 A2 G4- | %8
w: ||Ad te,|Do- mi- ne, le-|va\- * * *|vi a- ni- mam|me- am,|le- va\- * *|
 G4 F4 _E6 F2 | G8) D4 D4- | D2 D2 C4 B,4 A,4 | B,4 C4 D4 (F4- | F4 E2 ^F2 G4) D4 | z8 z4 G4- | %14
w: |* vi a\-|* ni- mam me- am,|a- ni- mam me\-|* * * * am,|a\-|
 G2 G2 F4 E8 | D8 z8 | z4 G8 D4 | F8 E8 | z4 D4 A4 A4 | G8 F4 F4 | E8 (D2 E2 F4- | %21
w: * ni- mam me-|am,|De- us|me- us,|in te con-|fi- do, con-|fi- do, * *|
 F4 E2 ^F2 G4 =F2 _E2 | D8) z8 | z4 G8 D4 | F8 E4 E4 | G4 G4 F8 | E8 z4 D4 | A4 A4 G8 | F4 D4 C8 | %29
w: ||De- us|me- us, in|te con- fi-|do, in|te con- fi-|do, con- fi-|
 B,8 z8 | z4 B,4 C4 F4 | D8 C4 C4 | D4 G4 F8 | E8 z4 D4 | E4 A4 (G4 F4 | E4 C4) D4 D4 | %36
w: do,|non e- ru-|be- scam, non|e- ru- be-|scam, non|e- ru- be\- *|* * scam, non|
 E4 (C2 D2) (E4 F4- | F4 E4) F8 | z16 | z16 | z4 C4 D4 F4 | F2 E2 D4 C4 _E4- | E4 D4 C4 A,4 | %43
w: e- ru\- * be\- *|* * scam,|||nec- que ir-|ri- de- ant me i\-|* ni- mi- ci,|
 z4 F4 G4 B4 | B2 A2 G4 F4 F4- | F4 G4 A8 | F8 (E4 F4) | D8 z4 E4 | F4 A4 A2 G2 F4 | E4 D8 E4 | %50
w: nec- que ir-|ri- de- ant me i\-|* ni- mi-|ci me\- *|i, nec-|que ir- ri- de- ant|me i- ni-|
 F8 D4 C4- | C4 D4 _E8 | D8 _E8 | F8 z4 D4 | _E4 G4 G2 F2 E4 | D4 D8 _E4 | F12 _E4 | (D12 C4) | %58
w: mi- ci, i\-|* ni- mi-|ci me-|i, nec-|que ir- ri- de- ant|me i- ni-|mi- ci|me *|
 D8 z4 D4- | D2 D2 D4 _E8- | E4 _E4 (D4 E2 F2 | G4 F4 _E8) | D4 D4 =E4 F4 | (G2 A2 B8 A4 | %64
w: i: Et\-|* e- nim u\-|* ni- ver\- * *||si, qui te ex-|pec\- * * *|
 G2 F4 E2) F8 | z4 A4 B4 G4 | (A2 G2 F2 E2 D4 E4 | F2 C2 F6 ED E4- | E2 DC D6 C2 C4- | %69
w: * * * tant,|non con- fun-|den\- * * * * *|||
 C4 B,8 A,4) | B,8 z8 | z4 D4 _E4 C4 | (D8 C8 | B,8 A,8 | z4 =E4 F4 D4 | E8 D8 | G4 A4 F4 (F4- | %77
w: |tur,|non con- fun-|den\- *|* tur,|non con- fun-|den- tur,|non con- fun- den\-|
 F2 E2 D2 E2 F4 E4) | D8 ^F6 F2 | ^F4 F8 F4 | G12 ^F4) | G4 z2 B,2 C4 D4 | (_E2 F2 G8 F4 | %83
w: |tur, et- e-|nim u- ni-|ver\- *|si, qui te ex-|pec\- * * *|
 _E4 C4) F8 | z4 D4 _E4 C4 | D4 B,4 _E4 D4 | C4 F4 _E8 | z4 D4 _E4 C4 | D16- | D16 | D16 | %91
w: * * tant,|non con- fun-|den- tur, non- con-|fun- den- tur,|non con- fun-|den\-|||
 !fermata!D16 |] %92
w: tur.|
V:3
 z16 | z16 | z16 | z16 | z16 | z8 D8 | (G4 A4) B6 A2 | G4 D4 (d6 c2 | B4 A4 G4 c4- | c4 B6 A2) G4 | %10
w: |||||Ad|te, * Do- mi-|ne, le- va\- *||* * * vi|
 z4 G6 G2 F4 | E8 D4 d4- | d2 d2 c4 B8 | A4 B4 c4 d4 | (^c4 d8 c4) | d8 z4 =c4- | c4 G4 B8 | %17
w: a- ni- mam|me- am, a\-|* ni- mam me-|am, a- ni- mam|me\- * *|am, De\-|* us me-|
 A8 z8 | z16 | z4 G4 d4 d4 | c8 B4 B4 | A8 G8 | z4 d8 A4 | c8 B4 B4 | d4 d4 c8 | G8 z4 F4 | %26
w: us,||in te con-|fi- do, con-|fi- do,|De- us|me- us, in|te con- fi-|do, in|
 c4 c4 B8 | A4 F4 (F4 E4) | F16 | z16 | z8 z4 F4 | G4 B4 A8 | G8 z4 F4 | G4 c4 B8 | A4 A4 B4 d4 | %35
w: te con- fi-|do, con- fi\- *|do,||non|e- ru- be-|scam, non|e- ru- be-|scam, non e- ru-|
 (c4 A4) B4 B4- | B4 A2 B2 c8- | c8 A8 | z4 F4 G4 B4 | B2 A2 G4 F4 c4- | c4 A4 B6 c2 | (d4 B4) c8 | %42
w: be\- * scam, non|* e- ru- be\-|* scam,|nec- que ir-|ri- de- ant me i\-|* ni- mi- ci|me\- * i,|
 z4 F4 A4 c4 | c2 B2 A4 G8 | G4 B4 d4 d4- | d2 c2 B4 A4 A4- | A4 B4 c6 d2 | (B2 c2 d6 c2 B4) | %48
w: nec- que ir-|ri- de- ant me,|nec- que ir- ri\-|* de- ant me i\-|* ni- mi- ci|me\- * * * *|
 c8 z4 F4 | G4 B4 B2 A2 G4 | A4 F8 G4 | A4 B4 (c2 B2 G2 A2 | B6 A2) G8 | z8 z4 B4 | %54
w: i, nec-|que ir- ri- de- ant|me i- ni-|mi- ci me\- * * *|* * i,|nec-|
 c4 _e4 e2 d2 c4 | B4 B8 c4 | d12 (c2 B2) | (A4 B8 A2 G2 | B8) A8- | A8 z4 c4- | c2 c2 c4 B4 A4 | %61
w: que ir- ri- de- ant|me i- ni-|mi- ci *|me\- * * *|* i:|* Et\-|* e- nim u- ni-|
 (G12 _E4) | F8 z8 | z4 F4 G4 A4 | B8 c8 | z16 | z16 | z4 A4 B4 G4 | (A8 G8) | F8 z8 | %70
w: ver\- *|si,|qui te ex-|pec- tant,|||non con- fun-|den\- *|tur,|
 z4 d4 _e4 c4 | (d8 c8) | B4 G4 A4 F4 | (G2 D2 G8 ^F4) | G8 c4 d4 | B4 c4 A4 B4- | B4 A4 c4 (d4- | %77
w: non con- fun-|den\- *|tur, non con- fun-|den\- * * *|tur, non con-|fun- den- tur, non|* con- fun- den\-|
 d2 ^c2 d8 c4) | d8 d6 d2 | d4 d8 d4 | (_e6 d2 c8) | d4 G4 A4 B4 | (c2 d2 _e8 d4 | c2 B4 A2) B8 | %84
w: |tur, et- e-|nim u- ni-|ver\- * *|si, qui te ex-|pec\- * * *|* * * tant,|
 z16 | z8 A4 B4 | (G4 A2) (B4 AG A4 | B6 A2 G8) | ^F8 z8 | z4 A4 B4 G4 | A16 | !fermata!G16 |] %92
w: |non con-|fun\- * den\- * * *||tur,|non con- fun-|den-|tur.|
V:4
 z16 | z16 | z16 | z16 | z16 | z16 | z16 | z8 G,,8 | D,8 _E,6 D,2 | C,4 G,,4 (G,6 F,2 | %10
w: |||||||Ad|te, Do- mi-|ne, le- va\- *|
 _E,8) D,4 D,4- | D,2 D,2 C,4 B,,8 | A,,8 (G,,2 A,,2 B,,2 C,2 | D,8) C,4 B,,4 | A,,16 | %15
w: * vi a\-|* ni- mam me-|am, a\- * * *|* ni- mam|me-|
 D,4 D,8 A,,4 | C,8 G,,8 | D,8 A,4 A,4 | G,8 F,4 F,4 | E,8 (D,2 E,2 F,2 G,2 | A,8) z8 | %21
w: am, De- us|me- us,|in te con-|fi- do, con-|fi- do, * * *||
 z8 z4 G,4- | G,4 D,4 F,8 | E,4 E,4 G,4 G,4 | (F,6 G,2 A,4) A,,4 | z4 G,,4 D,4 D,4 | C,8 G,,8 | %27
w: De\-|* us me-|us, in te con-|fi\- * * do,|in te con-|fi- do,|
 z16 | z8 z4 F,4 | G,4 B,4 A,8 | G,4 G,4 F,4 D,4 | B,,8 F,8 | z4 G,,4 A,,4 D,4 | C,8 G,,8 | %34
w: |non|e- ru- be-|scam, non e- ru-|be- scam,|non e- ru-|be- scam,|
 z8 z4 B,,4 | C,4 F,4 D,8 | C,16 | z4 C,4 D,4 F,4 | F,2 E,2 D,4 C,4 B,,4- | B,,4 C,4 D,4 E,4 | %40
w: non|e- ru- be-|scam,|nec- que ir-|ri- de- ant me i\-|* ni- mi- ci|
 (F,6 E,2 D,6 C,2) | B,,8 F,,4 C,4 | A,,4 B,,4 F,8 | D,8 z8 | z16 | z16 | z8 z4 F,4 | %47
w: me\- * * *|i, i- ni-|mi- ci me-|i,|||nec-|
 G,4 B,4 B,2 A,2 G,4 | F,8 z4 D,4 | E,4 G,4 G,2 F,2 E,4 | D,4 D,8 E,4 | F,8 C,8 | %52
w: que ir- ri- de- ant|me, nec-|que ir- ri- de- ant|me i- ni-|mi- ci|
 (G,6 F,2 _E,2 D,2 C,4 | B,,4 A,,4) G,,8 | z16 | z16 | z4 B,,8 C,4 | D,4 B,,4 _E,8 | D,16- | %59
w: me\- * * * *|* * i,|||i- ni-|mi- ci me-|i:|
 D,8 z4 C,4- | C,2 C,2 C,4 G,4 F,4 | (_E,4 D,4 C,8) | B,,8 z8 | z4 D,4 E,4 F,4 | G,8 F,8 | z16 | %66
w: * Et\-|* e- nim u- ni-|ver\- * *|si,|qui te ex-|pec- tant,||
 z16 | z16 | z4 D,4 _E,4 C,4 | (D,8 C,8) | B,,4 B,4 B,4 A,4 | (B,2 A,2 G,2 F,2 _E,4 F,4) | %72
w: ||non con- fun-|den\- *|tur, non con- fun-|den\- * * * * *|
 B,,8 z8 | z16 | z8 A,4 B,4 | (G,4 A,4 F,4 G,4 | E,4 F,6 E,2 D,2 C,2 | B,,8) A,,8 | z4 D,8 D,4 | %79
w: tur,||non con-|fun- den\- * *||* tur,|et- e-|
 D,8 D,4 D,4 | (C,6 B,,2 A,,8) | G,,8 z8 | z4 G,,4 A,,4 B,,4 | C,8 B,,8 | z16 | D,4 _E,4 C,4 (D,4 | %86
w: nim u- ni-|ver\- * *|si,|qui te ex-|pec- tant,||non con- fun- den\-|
 _E,4 D,4 C,8) | B,,4 B,,4 C,4 _E,4 | D,16- | D,16 | D,16 | !fermata!G,,16 |] %92
w: |tur, non con- fun-|den\-|||tur.|

